X: 7
T: The Four Drunken Maids
%R: reel
B: Kitty Bridges "Collection of Country Dances 1745" p.7
F: http://www.vwml.org/browse/browse-collections-dance-tune-books/browse-bridges1745
Z: 2015 John Chambers <jc:trillian.mit.edu>
N: The tune has no time signature.
M: none
L: 1/8
K: G
% - - - - - - - - - - - - - - - - - - - - - - - - - - - - -
GA |\
BGAF E3G/A/ | BGdB {B}A2GA |\
BGAF E3G/A/ | BGdB G3 :|\
|: B |\
cBcd efge | dBgB A3G/A/ |\
BGAF E3G/A/ | BGdB G3 :|
% - - - - - - - - - - Dance description - - - - - - - - - -
%%center The Four Drunken Maids
%%begintext align
%% Lead thro' the first coup.l and on the
%% Outside of the 2d then turn your Part.r lead
%% thro' the 2d Coup.l and on the Outside of the
%% 1st then turn your Part.r cross [over?] two coup.l
%% lead up to the Top foot it and Cast off.
%%endtext

%%sep 1 1 500
%%sep 1 1 500

